app/dist/common/images/estun-automation.svg

<svg height="18" viewBox="0 0 18 18" width="18" xmlns="http://www.w3.org/2000/svg"><path d="m0 0h18v18h-18z" fill="#f0f3fa"/><path d="m6 5.83c0-.46.32-.83.72-.83h5.28v1.5h-4.5v2h4.5v1.5h-4.5v1.5h4.5v1.5h-5.28c-.4 0-.72-.37-.72-.83z" fill="#00aaad"/></svg>

<!-- by TradingView --><svg width="18" height="18" viewBox="0 0 18 18" xmlns="http://www.w3.org/2000/svg"><path fill="#F0F3FA" d="M0 0h18v18H0z"/><path d="M6 5.83c0-.46.32-.83.72-.83H12v1.5H7.5v2H12V10H7.5v1.5H12V13H6.72c-.4 0-.72-.37-.72-.83V5.83Z" fill="#00AAAD"/></svg>
